X:91
T: Melodie eines Waechterliedes
N: A0106
O: Europa, Mitteleuropa, Deutschland
N: Strassb. Hs. No. 121 Bl 45b (14. Jh.)
R: Romanze, Ballade, Lied
M: 3/2
L: 1/2
K: D
D | G2A | B2B | d2
=c | B2A | B2A | G2
G | A2B | B2A | G2
=F | E2E | G2E | D2
E | =C2D | E2E | =F2E | D2
D | G2=c | B2G | G2B | B2A | G2
D | G2=c | B2G | G2B | B2A | G2
=F | E2D2 | A2G=F | E2A2 | E3

